places/16/mail-sent.svg

<?xml version="1.0" encoding="UTF-8" standalone="no"?>
<svg
   xmlns:dc="http://purl.org/dc/elements/1.1/"
   xmlns:cc="http://creativecommons.org/ns#"
   xmlns:rdf="http://www.w3.org/1999/02/22-rdf-syntax-ns#"
   xmlns:svg="http://www.w3.org/2000/svg"
   xmlns="http://www.w3.org/2000/svg"
   xmlns:xlink="http://www.w3.org/1999/xlink"
   xmlns:sodipodi="http://sodipodi.sourceforge.net/DTD/sodipodi-0.dtd"
   xmlns:inkscape="http://www.inkscape.org/namespaces/inkscape"
   version="1.1"
   id="svg3495"
   height="16"
   width="16"
   inkscape:version="0.91 r13725"
   sodipodi:docname="mail-sent.svg">
  <sodipodi:namedview
     pagecolor="#ffffff"
     bordercolor="#666666"
     borderopacity="1"
     objecttolerance="10"
     gridtolerance="10"
     guidetolerance="10"
     inkscape:pageopacity="0"
     inkscape:pageshadow="2"
     inkscape:window-width="1135"
     inkscape:window-height="666"
     id="namedview21"
     showgrid="false"
     inkscape:zoom="14.75"
     inkscape:cx="-1.1864407"
     inkscape:cy="8"
     inkscape:window-x="0"
     inkscape:window-y="30"
     inkscape:window-maximized="0"
     inkscape:current-layer="svg3495" />
  <defs
     id="defs3497">
    <linearGradient
       id="linearGradient3767">
      <stop
         id="stop3769"
         offset="0"
         style="stop-color:#000000;stop-opacity:1;" />
      <stop
         id="stop3771"
         offset="1"
         style="stop-color:#000000;stop-opacity:0;" />
    </linearGradient>
    <linearGradient
       id="linearGradient3757">
      <stop
         id="stop3759"
         offset="0"
         style="stop-color:#e2e2e2;stop-opacity:1" />
      <stop
         id="stop3761"
         offset="1"
         style="stop-color:#ffffff;stop-opacity:1" />
    </linearGradient>
    <linearGradient
       y2="28"
       x2="12"
       y1="48"
       x1="12"
       gradientTransform="matrix(0.7500457,0,0,0.7500457,-0.26856946,-20.025604)"
       gradientUnits="userSpaceOnUse"
       id="linearGradient3016"
       xlink:href="#linearGradient3757" />
    <linearGradient
       y2="42"
       x2="2"
       y1="33"
       x1="17"
       gradientTransform="matrix(0.7500457,0,0,0.7500457,-0.26856946,-20.025604)"
       gradientUnits="userSpaceOnUse"
       id="linearGradient3018"
       xlink:href="#linearGradient3767" />
  </defs>
  <metadata
     id="metadata3500">
    <rdf:RDF>
      <cc:Work
         rdf:about="">
        <dc:format>image/svg+xml</dc:format>
        <dc:type
           rdf:resource="http://purl.org/dc/dcmitype/StillImage" />
        <dc:title></dc:title>
      </cc:Work>
    </rdf:RDF>
  </metadata>
  <path
     inkscape:connector-curvature="0"
     style="display:inline;fill:url(#linearGradient3016);fill-opacity:1;stroke:none;enable-background:new"
     d="M 14.618011,3.607043 1.8140712,6.275306 4,7.974982 3.984466,11.151594 5.7396832,9.008464 9.4698275,11.680005 Z"
     id="path6400" />
  <path
     inkscape:connector-curvature="0"
     id="path3755"
     d="M 14.322162,3.785418 6.0306391,9.059176 5.5285769,9.262237 3.9930505,11.153713 4,8 Z"
     style="display:inline;opacity:0.61000001;fill:url(#linearGradient3018);fill-opacity:1;stroke:none;enable-background:new" />
  <path
     inkscape:connector-curvature="0"
     id="path3765"
     d="M 15.669903,2.877159 0.66898757,6.012116 3.5,8.209516 l -2e-7,4.3655 2.3255516,-2.900568 0,0 0,0 3.7795322,2.724775 z"
     style="display:inline;opacity:0.4;fill:none;stroke:#000000;stroke-width:1;stroke-linejoin:round;stroke-opacity:1;enable-background:new" />
  <path
     inkscape:connector-curvature="0"
     style="opacity:1;fill:#9e9e9e;fill-opacity:1;stroke:none"
     d="m 3.8445126,12.945847 2.0721555,-2.590023 1.251184,0.900651 z"
     id="path3808" />
  <path
     inkscape:connector-curvature="0"
     style="fill:#ffffff;fill-opacity:1;fill-rule:evenodd;stroke:none;stroke-width:1px;stroke-linecap:butt;stroke-linejoin:miter;stroke-opacity:1"
     d="M 1.8450572,6.273913 2.8728438,7.091067 9.4964539,5.744398 14.607202,3.620046 Z"
     id="path4161" />
  <path
     inkscape:connector-curvature="0"
     style="opacity:0.5;fill:#ffffff;fill-opacity:1;fill-rule:evenodd;stroke:none;stroke-width:1px;stroke-linecap:butt;stroke-linejoin:miter;stroke-opacity:1"
     d="M 14.597656,3.6269531 13.337891,5.5996094 11.349609,6.8535156 9.2011719,10.208984 7.6992188,9.15625 6.78125,9.734375 6.1582031,9.3027344 l 3.3125,2.3749996 5.1269529,-8.0507809 z"
     id="path4179" />
  <path
     inkscape:connector-curvature="0"
     style="opacity:0.8;fill:#ffffff;fill-opacity:1;fill-rule:evenodd;stroke:none;stroke-width:1px;stroke-linecap:butt;stroke-linejoin:miter;stroke-opacity:1"
     d="M 5.8948688,9.118795 6.78125,9.734375 13.338857,5.600232 14.607639,3.611658 Z"
     id="path4183" />
</svg>

<svg xmlns="http://www.w3.org/2000/svg" xmlns:xlink="http://www.w3.org/1999/xlink" viewBox="0 0 16 16"><defs><linearGradient id="b"><stop offset="0"/><stop offset="1" stop-opacity="0"/></linearGradient><linearGradient id="a"><stop offset="0" stop-color="#e2e2e2"/><stop offset="1" stop-color="#fff"/></linearGradient><linearGradient y2="28" x2="12" y1="48" x1="12" gradientTransform="translate(-.27 -20.026) scale(.75005)" gradientUnits="userSpaceOnUse" id="c" xlink:href="#a"/><linearGradient y2="42" x2="2" y1="33" x1="17" gradientTransform="translate(-.27 -20.026) scale(.75005)" gradientUnits="userSpaceOnUse" id="d" xlink:href="#b"/></defs><path d="M14.618 3.607L1.814 6.275 4 7.975l-.016 3.177L5.74 9.008l3.73 2.672z" fill="url(#c)"/><path d="M14.322 3.785L6.032 9.06l-.503.202-1.54 1.892L4 8z" opacity=".61" fill="url(#d)"/><path d="M15.67 2.877l-15 3.135L3.5 8.21v4.365l2.326-2.9 3.78 2.724z" opacity=".4" fill="none" stroke="#000" stroke-linejoin="round"/><path d="M3.845 12.946l2.072-2.59 1.25.9z" fill="#9e9e9e"/><path d="M1.845 6.274l1.028.817 6.623-1.343 5.11-2.124z" fill="#fff" fill-rule="evenodd"/><path d="M14.598 3.627L13.338 5.6 11.35 6.854 9.2 10.21 7.7 9.155l-.92.578-.622-.43 3.313 2.374 5.13-8.05z" opacity=".5" fill="#fff" fill-rule="evenodd"/><path d="M5.895 9.12l.886.614L13.34 5.6l1.268-1.988z" opacity=".8" fill="#fff" fill-rule="evenodd"/></svg>
